X: 1
T:Wind That: Shakes the Barley -- Reel
M:2/4
L:1/16
R:reel
B:Ryan's Mammoth Collection
N:155
Z:Contributed by Ray Davies,  ray:davies99.freeserve.co.uk
K:D
vA2AB AFED | B2BA B2d2 | A2AB AFED | gfed B2d2 |
 A2AB AFED | B2BA B2d2 | A2AB AFED | gfed B2d2 |]
vf2fd g2ge | f2fd ecBA | f2fd g2ge | afed B2d2 |
 f2fd g2ge | f2fd ecBA | defg afba | gfed B2d2 |]
